X: 18227
T: Humours Of Kiltyclogher, The
R: jig
M: 6/8
K: Adorian
|:AGE ~G2E|c2E EFG|~D3 D2A|GED D2B|
AGE ~G2E|c2E EFG|~A3 BGE|~A3 A2B:|
|:c3 c2d|ecA AdA|BAG GA/B/c|dBd BdB|
c2B c2d|ecA AdA|BAG GAB|~A3 A2B:|

